Sweet-Rainbow/icons/anjuta.svg

<?xml version="1.0" encoding="UTF-8" standalone="no"?>
<!-- Generator: Gravit.io -->

<svg
   xmlns:dc="http://purl.org/dc/elements/1.1/"
   xmlns:cc="http://creativecommons.org/ns#"
   xmlns:rdf="http://www.w3.org/1999/02/22-rdf-syntax-ns#"
   xmlns:svg="http://www.w3.org/2000/svg"
   xmlns="http://www.w3.org/2000/svg"
   xmlns:sodipodi="http://sodipodi.sourceforge.net/DTD/sodipodi-0.dtd"
   xmlns:inkscape="http://www.inkscape.org/namespaces/inkscape"
   style="isolation:isolate"
   viewBox="0 0 36 36"
   width="48"
   height="48"
   version="1.1"
   id="svg16"
   sodipodi:docname="anjuta.svg"
   inkscape:version="0.92.4 (5da689c313, 2019-01-14)">
  <metadata
     id="metadata22">
    <rdf:RDF>
      <cc:Work
         rdf:about="">
        <dc:format>image/svg+xml</dc:format>
        <dc:type
           rdf:resource="http://purl.org/dc/dcmitype/StillImage" />
        <dc:title></dc:title>
      </cc:Work>
    </rdf:RDF>
  </metadata>
  <defs
     id="defs20" />
  <sodipodi:namedview
     pagecolor="#ffffff"
     bordercolor="#666666"
     borderopacity="1"
     objecttolerance="10"
     gridtolerance="10"
     guidetolerance="10"
     inkscape:pageopacity="0"
     inkscape:pageshadow="2"
     inkscape:window-width="640"
     inkscape:window-height="480"
     id="namedview18"
     showgrid="false"
     inkscape:zoom="29.365243"
     inkscape:cx="25.325443"
     inkscape:cy="32"
     inkscape:current-layer="svg16"
     units="px" />
  <linearGradient
     id="_lgradient_4"
     x1="0"
     y1="0.5"
     x2="0.90748805"
     y2="0.92007786"
     gradientTransform="matrix(47,0,0,46.826,0.5,0.674)"
     gradientUnits="userSpaceOnUse">
    <stop
       offset="0%"
       stop-opacity="1"
       style="stop-color:rgb(69,104,220)"
       id="stop2" />
    <stop
       offset="98.69565217391305%"
       stop-opacity="1"
       style="stop-color:rgb(176,106,179)"
       id="stop4" />
  </linearGradient>
  <linearGradient
     id="_lgradient_5"
     x1="0"
     y1="0.5"
     x2="0.90748805"
     y2="0.92007786"
     gradientTransform="matrix(32.971,0,0,40.314,7.819,4.936)"
     gradientUnits="userSpaceOnUse">
    <stop
       offset="0%"
       stop-opacity="1"
       style="stop-color:rgb(69,104,220)"
       id="stop9" />
    <stop
       offset="98.69565217391305%"
       stop-opacity="1"
       style="stop-color:rgb(176,106,179)"
       id="stop11" />
  </linearGradient>
  <g
     id="g831"
     transform="matrix(0.76595745,0,0,0.76595745,-0.3829788,-0.44965124)">
    <path
       id="path7"
       d="m 9.07,36.53 1.28,1.26 C 9.706,38.572 8.696,39.532 8.696,39.532 7.92,40.143 6.712,39.955 6.001,39.111 L 6,39.11 C 2.45,34.88 0.5,29.53 0.5,24 0.5,18.23 2.63,12.66 6.47,8.36 v 0 C 7.204,7.538 8.468,7.466 9.29,8.2 v 0 c 0.822,0.734 0.894,1.998 0.16,2.82 v 0 C 6.26,14.59 4.5,19.21 4.5,24 c 0,4.58 1.62,9.02 4.57,12.53 z M 26.49,4.66 v 0 C 25.392,4.517 24.614,3.513 24.755,2.42 v 0 C 24.896,1.327 25.897,0.552 26.99,0.69 v 0 c 5.67,0.73 10.88,3.49 14.66,7.78 3.77,4.29 5.85,9.82 5.85,15.53 0,6.23 -2.48,12.21 -6.88,16.62 -4.41,4.4 -10.39,6.88 -16.62,6.88 -2.67,0 -5.32,-0.45 -7.84,-1.34 v 0 c -1.043,-0.37 -1.59,-1.515 -1.22,-2.555 v 0 c 0.37,-1.04 1.512,-1.585 2.55,-1.215 v 0 c 2.09,0.73 4.29,1.11 6.51,1.11 5.17,0 10.13,-2.06 13.79,-5.71 C 41.44,34.13 43.5,29.17 43.5,24 43.5,19.26 41.78,14.68 38.64,11.12 35.51,7.56 31.19,5.26 26.49,4.66 Z"
       style="fill:url(#_lgradient_4);fill-rule:evenodd"
       inkscape:connector-curvature="0" />
    <path
       id="path14"
       d="m 22.836,14.982 c -0.24,0.14 -0.425,0.358 -0.526,0.618 -0.12,0.31 -0.12,0.65 0.01,0.95 0.13,0.31 0.38,0.55 0.69,0.67 v 0 c 0.71,0.28 1.45,0.47 2.2,0.57 0.59,0.07 1.17,0.1 1.76,0.1 0.35,0 0.69,0.02 1.04,0.06 0.14,0.01 0.29,0.05 0.42,0.11 0.34,0.33 0.63,0.71 0.86,1.13 0.35,0.61 0.67,1.23 0.96,1.87 0.28,0.62 0.59,1.23 0.92,1.84 0.34,0.64 0.75,1.24 1.23,1.79 0.51,0.56 1.1,1.04 1.75,1.43 0.6,0.37 1.21,0.72 1.84,1.05 0.48,0.25 0.95,0.51 1.4,0.8 0.14,0.09 0.27,0.19 0.39,0.3 0.02,0.02 0.04,0.04 0.05,0.06 0.3,0.59 0.45,1.25 0.46,1.91 0,0.52 -0.1,1.04 -0.3,1.52 -0.16,0.42 -0.4,0.8 -0.72,1.12 -0.21,0.22 -0.47,0.38 -0.76,0.5 -0.3,0.11 -0.62,0.16 -0.94,0.16 -0.4,-0.01 -0.79,-0.06 -1.17,-0.17 -0.45,-0.12 -0.88,-0.29 -1.3,-0.5 -0.68,-0.33 -1.33,-0.71 -1.96,-1.13 -0.44,-0.32 -0.87,-0.65 -1.28,-1.01 0,0 -0.01,0 -0.01,-0.01 l -0.19,-0.16 c -0.01,0 -0.01,-0.01 -0.02,-0.01 -0.61,-0.5 -1.32,-0.88 -2.08,-1.1 -0.78,-0.23 -1.58,-0.35 -2.39,-0.36 0,0 0,0 0,0 h -0.2 c -0.02,0 -0.03,0 -0.04,0 -0.55,0.01 -1.1,0.04 -1.65,0.1 -0.46,0.06 -0.92,0.09 -1.38,0.09 -0.31,0.01 -0.61,-0.03 -0.91,-0.11 -0.22,-0.06 -0.42,-0.18 -0.59,-0.33 -0.3,-0.29 -0.51,-0.66 -0.61,-1.07 -0.11,-0.57 -0.16,-1.15 -0.14,-1.73 0,-0.01 0,-0.02 0,-0.04 v -0.3 l 0.01,-0.28 c 0.02,-0.81 -0.05,-1.61 -0.21,-2.4 -0.06,-0.32 -0.25,-0.61 -0.53,-0.79 -0.27,-0.19 -0.61,-0.25 -0.94,-0.19 -0.32,0.07 -0.61,0.26 -0.79,0.53 -0.19,0.28 -0.25,0.62 -0.19,0.94 0.12,0.61 0.18,1.23 0.16,1.85 0,0.01 0,0.02 0,0.03 l -0.01,0.31 v 0.28 c -0.02,0.77 0.04,1.55 0.2,2.31 0.2,0.9 0.66,1.73 1.34,2.37 0.46,0.43 1.02,0.74 1.62,0.92 0.53,0.15 1.08,0.21 1.64,0.2 0.055,-0.001 0.11,-0.002 0.165,-0.005 0.017,0.005 0.036,0.005 0.055,0.003 0,0 0,0.001 0,0.002 0.02,1.22 0.17,2.45 0.46,3.64 0.3,1.3 0.71,2.58 1.22,3.81 0.49,1.21 1.11,2.36 1.86,3.43 0.34,0.49 0.73,0.96 1.16,1.38 0.4,0.41 0.86,0.76 1.36,1.04 0.29,0.17 0.63,0.21 0.95,0.13 0.32,-0.09 0.59,-0.3 0.76,-0.59 0.16,-0.28 0.21,-0.63 0.12,-0.95 -0.09,-0.32 -0.3,-0.59 -0.59,-0.75 v 0 c -0.3,-0.18 -0.58,-0.4 -0.83,-0.65 -0.33,-0.32 -0.62,-0.67 -0.88,-1.04 -0.64,-0.92 -1.18,-1.91 -1.6,-2.95 -0.46,-1.11 -0.83,-2.26 -1.09,-3.43 -0.249,-1.006 -0.379,-2.042 -0.4,-3.087 0.009,-0.001 0.017,-0.003 0.026,-0.004 -0.011,-0.012 -0.02,-0.024 -0.025,-0.035 -10e-4,-0.037 0,-0.075 0.003,-0.113 -0.002,-0.006 0.003,-0.01 0.006,-0.015 v 0 c 0.091,-0.005 0.18,-0.006 0.27,-0.006 h 0.18 c 0.59,0.01 1.17,0.1 1.73,0.26 0.43,0.13 0.84,0.34 1.19,0.63 l 0.18,0.15 c 0.48,0.41 0.97,0.8 1.48,1.16 0.73,0.5 1.5,0.94 2.29,1.32 0.55,0.28 1.13,0.5 1.73,0.67 0.59,0.17 1.2,0.25 1.82,0.26 0.63,0 1.25,-0.11 1.84,-0.33 0.63,-0.23 1.19,-0.6 1.66,-1.07 0.55,-0.56 0.98,-1.23 1.27,-1.96 0.31,-0.78 0.47,-1.61 0.47,-2.45 -0.01,-1.06 -0.26,-2.11 -0.74,-3.06 -0.16,-0.3 -0.37,-0.56 -0.62,-0.78 -0.22,-0.19 -0.45,-0.37 -0.7,-0.53 -0.51,-0.33 -1.05,-0.63 -1.59,-0.91 -0.57,-0.3 -1.13,-0.62 -1.68,-0.96 -0.44,-0.27 -0.85,-0.59 -1.2,-0.97 -0.34,-0.4 -0.64,-0.84 -0.89,-1.31 -0.3,-0.55 -0.59,-1.12 -0.85,-1.69 -0.32,-0.7 -0.67,-1.39 -1.05,-2.06 -0.41,-0.74 -0.95,-1.4 -1.59,-1.96 -0.49,-0.29 -1.03,-0.47 -1.6,-0.54 -0.277,-0.032 -0.558,-0.052 -0.84,-0.063 0.017,0.005 0.034,0.012 0.05,0.033 -0.162,-0.713 -0.228,-1.441 -0.21,-2.17 0,-0.37 0.01,-0.74 0.02,-1.11 0.01,-0.32 0.02,-0.65 0.02,-0.97 0,-0.34 -0.01,-0.69 -0.05,-1.02 C 27.24,9.79 27.15,9.43 27.01,9.08 26.79,8.62 26.51,8.18 26.17,7.78 25.84,7.36 25.49,6.97 25.12,6.59 24.79,6.24 24.44,5.91 24.07,5.6 23.94,5.49 23.79,5.38 23.64,5.27 23.4,5.09 23.1,4.97 22.79,4.94 c -0.37,-0.03 -0.74,0.1 -1,0.36 -0.27,0.26 -0.42,0.62 -0.4,0.99 0,0.05 0,0.09 0.01,0.14 l 0.01,0.05 c 0,0.03 0.01,0.06 0.02,0.09 0.07,0.33 0.1,0.68 0.09,1.03 -0.01,0.81 -0.07,1.62 -0.17,2.42 -0.09,0.75 -0.19,1.49 -0.31,2.22 C 20.75,12.22 20.46,12.2 20.17,12.2 19.83,12.21 19.5,12.23 19.16,12.28 18.92,11.92 18.69,11.55 18.49,11.16 18.13,10.5 17.8,9.83 17.48,9.15 17.24,8.64 16.99,8.13 16.71,7.63 16.61,7.43 16.48,7.24 16.34,7.06 16.1,6.71 15.73,6.48 15.31,6.41 15.18,6.39 15.04,6.39 14.91,6.41 H 14.88 C 14.79,6.42 14.7,6.45 14.62,6.48 14.34,6.58 14.1,6.76 13.92,7 13.81,7.15 13.71,7.31 13.63,7.49 13.48,7.81 13.37,8.16 13.3,8.51 c -0.18,0.83 -0.27,1.67 -0.26,2.52 -0.01,0.72 0.06,1.45 0.21,2.15 0.11,0.42 0.27,0.83 0.47,1.21 0.21,0.48 0.44,0.95 0.67,1.42 0.02,0.03 0.04,0.07 0.05,0.11 -0.19,0.17 -0.38,0.34 -0.58,0.49 -0.41,0.31 -0.79,0.65 -1.14,1.02 -0.43,0.46 -0.77,1 -1.02,1.58 -0.18,0.46 -0.33,0.93 -0.44,1.41 -0.12,0.52 -0.22,1.05 -0.3,1.58 -0.16,1.2 -0.3,2.4 -0.4,3.61 -0.09,0.99 -0.19,1.99 -0.31,2.98 -0.11,0.98 -0.26,1.96 -0.45,2.94 -0.18,0.9 -0.42,1.78 -0.72,2.65 -0.26,0.75 -0.61,1.47 -1.05,2.13 -0.18,0.28 -0.25,0.61 -0.19,0.94 0.07,0.32 0.26,0.61 0.54,0.79 0.28,0.18 0.61,0.25 0.94,0.19 0.32,-0.07 0.61,-0.26 0.79,-0.54 0.56,-0.84 1,-1.74 1.33,-2.69 0.34,-0.98 0.61,-1.98 0.81,-3 0.2,-1.03 0.36,-2.07 0.49,-3.12 0.11,-1.02 0.22,-2.03 0.31,-3.05 0.1,-1.17 0.23,-2.33 0.39,-3.48 0.07,-0.47 0.15,-0.92 0.26,-1.38 0.07,-0.34 0.18,-0.67 0.31,-1 0.13,-0.3 0.31,-0.58 0.53,-0.83 0.26,-0.27 0.55,-0.52 0.84,-0.75 0.76,-0.58 1.45,-1.25 2.06,-1.98 -0.26,-0.57 -0.53,-1.14 -0.81,-1.7 -0.23,-0.47 -0.45,-0.94 -0.67,-1.42 -0.11,-0.22 -0.21,-0.45 -0.28,-0.69 -0.1,-0.52 -0.15,-1.04 -0.14,-1.57 0,-0.05 0,-0.09 0,-0.14 v 0 0 c 0.24,0.48 0.48,0.96 0.74,1.44 0.52,0.99 1.16,1.91 1.91,2.73 0.64,-0.21 1.31,-0.33 1.99,-0.36 0.869,0.027 1.73,0.142 2.576,0.348 0.022,-0.031 0.048,-0.053 0.08,-0.066 z m 0.259,-0.085 c 0.309,-1.516 0.554,-3.032 0.735,-4.567 0.06,-0.43 0.1,-0.87 0.13,-1.31 0.1,0.12 0.19,0.23 0.28,0.34 0.19,0.23 0.35,0.47 0.48,0.73 0.04,0.1 0.06,0.19 0.06,0.29 0.03,0.26 0.04,0.52 0.04,0.78 0,0.3 -0.01,0.61 -0.02,0.92 -0.01,0.38 -0.01,0.76 -0.02,1.14 -0.013,0.674 0.028,1.353 0.134,2.02 0,-0.021 0.011,-0.032 0.039,-0.031 -0.348,-0.073 -0.69,-0.178 -1.023,-0.309 -0.3,-0.12 -0.65,-0.12 -0.95,0.01 -0.01,0.004 -0.019,0.008 -0.028,0.014 -0.04,0.016 -0.079,0.036 0.143,-0.027 z"
       style="fill:url(#_lgradient_5);fill-rule:evenodd"
       inkscape:connector-curvature="0" />
  </g>
</svg>

<?xml version="1.0" encoding="UTF-8" standalone="no"?>
<!-- Generator: Gravit.io -->
<svg xmlns="http://www.w3.org/2000/svg" xmlns:xlink="http://www.w3.org/1999/xlink" style="isolation:isolate" viewBox="0 0 48 48" width="48pt" height="48pt"><linearGradient id="_lgradient_4" x1="0" y1="0.5" x2="0.9074880558539661" y2="0.9200778838291643" gradientTransform="matrix(47,0,0,46.826,0.5,0.674)" gradientUnits="userSpaceOnUse"><stop offset="0%" stop-opacity="1" style="stop-color:rgb(69,104,220)"/><stop offset="98.69565217391305%" stop-opacity="1" style="stop-color:rgb(176,106,179)"/></linearGradient><path d=" M 9.07 36.53 L 10.35 37.79 C 9.706 38.572 8.696 39.532 8.696 39.532 C 7.92 40.143 6.712 39.955 6.001 39.111 L 6 39.11 C 2.45 34.88 0.5 29.53 0.5 24 C 0.5 18.23 2.63 12.66 6.47 8.36 L 6.47 8.36 C 7.204 7.538 8.468 7.466 9.29 8.2 L 9.29 8.2 C 10.112 8.934 10.184 10.198 9.45 11.02 L 9.45 11.02 C 6.26 14.59 4.5 19.21 4.5 24 C 4.5 28.58 6.12 33.02 9.07 36.53 Z  M 26.49 4.66 L 26.49 4.66 C 25.392 4.517 24.614 3.513 24.755 2.42 L 24.755 2.42 C 24.896 1.327 25.897 0.552 26.99 0.69 L 26.99 0.69 C 32.66 1.42 37.87 4.18 41.65 8.47 C 45.42 12.76 47.5 18.29 47.5 24 C 47.5 30.23 45.02 36.21 40.62 40.62 C 36.21 45.02 30.23 47.5 24 47.5 C 21.33 47.5 18.68 47.05 16.16 46.16 L 16.16 46.16 C 15.117 45.79 14.57 44.645 14.94 43.605 L 14.94 43.605 C 15.31 42.565 16.452 42.02 17.49 42.39 L 17.49 42.39 C 19.58 43.12 21.78 43.5 24 43.5 C 29.17 43.5 34.13 41.44 37.79 37.79 C 41.44 34.13 43.5 29.17 43.5 24 C 43.5 19.26 41.78 14.68 38.64 11.12 C 35.51 7.56 31.19 5.26 26.49 4.66 Z " fill-rule="evenodd" fill="url(#_lgradient_4)"/><linearGradient id="_lgradient_5" x1="0" y1="0.5" x2="0.9074880558539661" y2="0.9200778838291643" gradientTransform="matrix(32.971,0,0,40.314,7.819,4.936)" gradientUnits="userSpaceOnUse"><stop offset="0%" stop-opacity="1" style="stop-color:rgb(69,104,220)"/><stop offset="98.69565217391305%" stop-opacity="1" style="stop-color:rgb(176,106,179)"/></linearGradient><path d=" M 22.836 14.982 C 22.596 15.122 22.411 15.34 22.31 15.6 C 22.19 15.91 22.19 16.25 22.32 16.55 C 22.45 16.86 22.7 17.1 23.01 17.22 L 23.01 17.22 C 23.72 17.5 24.46 17.69 25.21 17.79 C 25.8 17.86 26.38 17.89 26.97 17.89 C 27.32 17.89 27.66 17.91 28.01 17.95 C 28.15 17.96 28.3 18 28.43 18.06 C 28.77 18.39 29.06 18.77 29.29 19.19 C 29.64 19.8 29.96 20.42 30.25 21.06 C 30.53 21.68 30.84 22.29 31.17 22.9 C 31.51 23.54 31.92 24.14 32.4 24.69 C 32.91 25.25 33.5 25.73 34.15 26.12 C 34.75 26.49 35.36 26.84 35.99 27.17 C 36.47 27.42 36.94 27.68 37.39 27.97 C 37.53 28.06 37.66 28.16 37.78 28.27 C 37.8 28.29 37.82 28.31 37.83 28.33 C 38.13 28.92 38.28 29.58 38.29 30.24 C 38.29 30.76 38.19 31.28 37.99 31.76 C 37.83 32.18 37.59 32.56 37.27 32.88 C 37.06 33.1 36.8 33.26 36.51 33.38 C 36.21 33.49 35.89 33.54 35.57 33.54 C 35.17 33.53 34.78 33.48 34.4 33.37 C 33.95 33.25 33.52 33.08 33.1 32.87 C 32.42 32.54 31.77 32.16 31.14 31.74 C 30.7 31.42 30.27 31.09 29.86 30.73 C 29.86 30.73 29.85 30.73 29.85 30.72 L 29.66 30.56 C 29.65 30.56 29.65 30.55 29.64 30.55 C 29.03 30.05 28.32 29.67 27.56 29.45 C 26.78 29.22 25.98 29.1 25.17 29.09 C 25.17 29.09 25.17 29.09 25.17 29.09 L 24.97 29.09 C 24.95 29.09 24.94 29.09 24.93 29.09 C 24.38 29.1 23.83 29.13 23.28 29.19 C 22.82 29.25 22.36 29.28 21.9 29.28 C 21.59 29.29 21.29 29.25 20.99 29.17 C 20.77 29.11 20.57 28.99 20.4 28.84 C 20.1 28.55 19.89 28.18 19.79 27.77 C 19.68 27.2 19.63 26.62 19.65 26.04 C 19.65 26.03 19.65 26.02 19.65 26 L 19.65 25.7 L 19.66 25.42 C 19.68 24.61 19.61 23.81 19.45 23.02 C 19.39 22.7 19.2 22.41 18.92 22.23 C 18.65 22.04 18.31 21.98 17.98 22.04 C 17.66 22.11 17.37 22.3 17.19 22.57 C 17 22.85 16.94 23.19 17 23.51 C 17.12 24.12 17.18 24.74 17.16 25.36 C 17.16 25.37 17.16 25.38 17.16 25.39 L 17.15 25.7 L 17.15 25.98 C 17.13 26.75 17.19 27.53 17.35 28.29 C 17.55 29.19 18.01 30.02 18.69 30.66 C 19.15 31.09 19.71 31.4 20.31 31.58 C 20.84 31.73 21.39 31.79 21.95 31.78 C 22.005 31.779 22.06 31.778 22.115 31.775 C 22.132 31.78 22.151 31.78 22.17 31.778 C 22.17 31.778 22.17 31.779 22.17 31.78 C 22.19 33 22.34 34.23 22.63 35.42 C 22.93 36.72 23.34 38 23.85 39.23 C 24.34 40.44 24.96 41.59 25.71 42.66 C 26.05 43.15 26.44 43.62 26.87 44.04 C 27.27 44.45 27.73 44.8 28.23 45.08 C 28.52 45.25 28.86 45.29 29.18 45.21 C 29.5 45.12 29.77 44.91 29.94 44.62 C 30.1 44.34 30.15 43.99 30.06 43.67 C 29.97 43.35 29.76 43.08 29.47 42.92 L 29.47 42.92 C 29.17 42.74 28.89 42.52 28.64 42.27 C 28.31 41.95 28.02 41.6 27.76 41.23 C 27.12 40.31 26.58 39.32 26.16 38.28 C 25.7 37.17 25.33 36.02 25.07 34.85 C 24.821 33.844 24.691 32.808 24.67 31.763 C 24.679 31.762 24.687 31.76 24.696 31.759 C 24.685 31.747 24.676 31.735 24.671 31.724 C 24.67 31.687 24.671 31.649 24.674 31.611 C 24.672 31.605 24.677 31.601 24.68 31.596 L 24.68 31.596 C 24.771 31.591 24.86 31.59 24.95 31.59 L 25.13 31.59 C 25.72 31.6 26.3 31.69 26.86 31.85 C 27.29 31.98 27.7 32.19 28.05 32.48 L 28.23 32.63 C 28.71 33.04 29.2 33.43 29.71 33.79 C 30.44 34.29 31.21 34.73 32 35.11 C 32.55 35.39 33.13 35.61 33.73 35.78 C 34.32 35.95 34.93 36.03 35.55 36.04 C 36.18 36.04 36.8 35.93 37.39 35.71 C 38.02 35.48 38.58 35.11 39.05 34.64 C 39.6 34.08 40.03 33.41 40.32 32.68 C 40.63 31.9 40.79 31.07 40.79 30.23 C 40.78 29.17 40.53 28.12 40.05 27.17 C 39.89 26.87 39.68 26.61 39.43 26.39 C 39.21 26.2 38.98 26.02 38.73 25.86 C 38.22 25.53 37.68 25.23 37.14 24.95 C 36.57 24.65 36.01 24.33 35.46 23.99 C 35.02 23.72 34.61 23.4 34.26 23.02 C 33.92 22.62 33.62 22.18 33.37 21.71 C 33.07 21.16 32.78 20.59 32.52 20.02 C 32.2 19.32 31.85 18.63 31.47 17.96 C 31.06 17.22 30.52 16.56 29.88 16 C 29.39 15.71 28.85 15.53 28.28 15.46 C 28.003 15.428 27.722 15.408 27.44 15.397 C 27.457 15.402 27.474 15.409 27.49 15.43 C 27.328 14.717 27.262 13.989 27.28 13.26 C 27.28 12.89 27.29 12.52 27.3 12.15 C 27.31 11.83 27.32 11.5 27.32 11.18 C 27.32 10.84 27.31 10.49 27.27 10.16 C 27.24 9.79 27.15 9.43 27.01 9.08 C 26.79 8.62 26.51 8.18 26.17 7.78 C 25.84 7.36 25.49 6.97 25.12 6.59 C 24.79 6.24 24.44 5.91 24.07 5.6 C 23.94 5.49 23.79 5.38 23.64 5.27 C 23.4 5.09 23.1 4.97 22.79 4.94 C 22.42 4.91 22.05 5.04 21.79 5.3 C 21.52 5.56 21.37 5.92 21.39 6.29 C 21.39 6.34 21.39 6.38 21.4 6.43 L 21.41 6.48 C 21.41 6.51 21.42 6.54 21.43 6.57 C 21.5 6.9 21.53 7.25 21.52 7.6 C 21.51 8.41 21.45 9.22 21.35 10.02 C 21.26 10.77 21.16 11.51 21.04 12.24 C 20.75 12.22 20.46 12.2 20.17 12.2 C 19.83 12.21 19.5 12.23 19.16 12.28 C 18.92 11.92 18.69 11.55 18.49 11.16 C 18.13 10.5 17.8 9.83 17.48 9.15 C 17.24 8.64 16.99 8.13 16.71 7.63 C 16.61 7.43 16.48 7.24 16.34 7.06 C 16.1 6.71 15.73 6.48 15.31 6.41 C 15.18 6.39 15.04 6.39 14.91 6.41 L 14.88 6.41 C 14.79 6.42 14.7 6.45 14.62 6.48 C 14.34 6.58 14.1 6.76 13.92 7 C 13.81 7.15 13.71 7.31 13.63 7.49 C 13.48 7.81 13.37 8.16 13.3 8.51 C 13.12 9.34 13.03 10.18 13.04 11.03 C 13.03 11.75 13.1 12.48 13.25 13.18 C 13.36 13.6 13.52 14.01 13.72 14.39 C 13.93 14.87 14.16 15.34 14.39 15.81 C 14.41 15.84 14.43 15.88 14.44 15.92 C 14.25 16.09 14.06 16.26 13.86 16.41 C 13.45 16.72 13.07 17.06 12.72 17.43 C 12.29 17.89 11.95 18.43 11.7 19.01 C 11.52 19.47 11.37 19.94 11.26 20.42 C 11.14 20.94 11.04 21.47 10.96 22 C 10.8 23.2 10.66 24.4 10.56 25.61 C 10.47 26.6 10.37 27.6 10.25 28.59 C 10.14 29.57 9.99 30.55 9.8 31.53 C 9.62 32.43 9.38 33.31 9.08 34.18 C 8.82 34.93 8.47 35.65 8.03 36.31 C 7.85 36.59 7.78 36.92 7.84 37.25 C 7.91 37.57 8.1 37.86 8.38 38.04 C 8.66 38.22 8.99 38.29 9.32 38.23 C 9.64 38.16 9.93 37.97 10.11 37.69 C 10.67 36.85 11.11 35.95 11.44 35 C 11.78 34.02 12.05 33.02 12.25 32 C 12.45 30.97 12.61 29.93 12.74 28.88 C 12.85 27.86 12.96 26.85 13.05 25.83 C 13.15 24.66 13.28 23.5 13.44 22.35 C 13.51 21.88 13.59 21.43 13.7 20.97 C 13.77 20.63 13.88 20.3 14.01 19.97 C 14.14 19.67 14.32 19.39 14.54 19.14 C 14.8 18.87 15.09 18.62 15.38 18.39 C 16.14 17.81 16.83 17.14 17.44 16.41 C 17.18 15.84 16.91 15.27 16.63 14.71 C 16.4 14.24 16.18 13.77 15.96 13.29 C 15.85 13.07 15.75 12.84 15.68 12.6 C 15.58 12.08 15.53 11.56 15.54 11.03 C 15.54 10.98 15.54 10.94 15.54 10.89 L 15.54 10.89 L 15.54 10.89 C 15.78 11.37 16.02 11.85 16.28 12.33 C 16.8 13.32 17.44 14.24 18.19 15.06 C 18.83 14.85 19.5 14.73 20.18 14.7 C 21.049 14.727 21.91 14.842 22.756 15.048 C 22.778 15.017 22.804 14.995 22.836 14.982 Z  M 23.095 14.897 C 23.404 13.381 23.649 11.865 23.83 10.33 C 23.89 9.9 23.93 9.46 23.96 9.02 C 24.06 9.14 24.15 9.25 24.24 9.36 C 24.43 9.59 24.59 9.83 24.72 10.09 C 24.76 10.19 24.78 10.28 24.78 10.38 C 24.81 10.64 24.82 10.9 24.82 11.16 C 24.82 11.46 24.81 11.77 24.8 12.08 C 24.79 12.46 24.79 12.84 24.78 13.22 C 24.767 13.894 24.808 14.573 24.914 15.24 C 24.914 15.219 24.925 15.208 24.953 15.209 C 24.605 15.136 24.263 15.031 23.93 14.9 C 23.63 14.78 23.28 14.78 22.98 14.91 C 22.97 14.914 22.961 14.918 22.952 14.924 C 22.912 14.94 22.873 14.96 23.095 14.897 Z " fill-rule="evenodd" fill="url(#_lgradient_5)"/></svg>
